dist/img/icons/star-black.svg

<svg width="22" height="20" viewBox="0 0 22 20" fill="none" xmlns="http://www.w3.org/2000/svg">
<path d="M9.79329 0.85958C10.0931 -0.0606967 11.3951 -0.0606959 11.6949 0.859581L13.446 6.23398C13.5801 6.64561 13.9639 6.92418 14.3968 6.92418H20.0576C21.0269 6.92418 21.4293 8.16521 20.6443 8.73398L16.0694 12.0486C15.7179 12.3033 15.5709 12.7555 15.7053 13.1682L17.4539 18.5349C17.7539 19.4557 16.7006 20.2227 15.9164 19.6544L11.3308 16.3321C10.9808 16.0784 10.5074 16.0784 10.1574 16.3321L5.57183 19.6544C4.78757 20.2227 3.73428 19.4557 4.0343 18.5348L5.78288 13.1682C5.91733 12.7555 5.77025 12.3033 5.41879 12.0486L0.843917 8.73398C0.0589104 8.16521 0.461241 6.92418 1.43064 6.92418H7.09139C7.52432 6.92418 7.90808 6.64561 8.0422 6.23398L9.79329 0.85958Z" fill="#070707"/>
</svg>

<svg width="22" height="20" fill="none" xmlns="http://www.w3.org/2000/svg"><path d="M9.793.86c.3-.92 1.602-.92 1.902 0l1.751 5.374a1 1 0 00.95.69h5.662c.969 0 1.371 1.241.586 1.81l-4.575 3.315a1 1 0 00-.364 1.12l1.749 5.366c.3.92-.753 1.688-1.538 1.12l-4.585-3.323a1 1 0 00-1.174 0l-4.585 3.322c-.784.569-1.838-.198-1.538-1.12l1.749-5.366a1 1 0 00-.364-1.12L.844 8.735c-.785-.569-.383-1.81.587-1.81h5.66a1 1 0 00.951-.69L9.793.86z" fill="#070707"/></svg>
